img/icons/pdf.svg

<svg width="90" height="120" viewBox="0 0 90 120" fill="none" xmlns="http://www.w3.org/2000/svg">
<path fill-rule="evenodd" clip-rule="evenodd" d="M15.6665 0H55.9004L90 35.2208V103.726C90 112.307 82.9937 119.25 74.3634 119.25H15.6665C7.00633 119.25 2.47479e-09 112.307 2.47479e-09 103.726V15.5245C-0.000152048 6.94282 7.00618 0 15.6665 0Z" fill="#E5252A"/>
<path opacity="0.302" fill-rule="evenodd" clip-rule="evenodd" d="M55.8672 0V34.9526H89.9969L55.8672 0Z" fill="white"/>
<path d="M17.4102 88.9754V67.1934H26.762C29.0774 67.1934 30.9118 67.8191 32.295 69.1004C33.6782 70.3519 34.3699 72.0504 34.3699 74.166C34.3699 76.2816 33.6782 77.9801 32.295 79.2316C30.9118 80.5129 29.0774 81.1387 26.762 81.1387H23.0333V88.9754H17.4102ZM23.0333 76.4009H26.1306C26.9725 76.4009 27.634 76.2221 28.0852 75.805C28.5361 75.4176 28.7768 74.8812 28.7768 74.1662C28.7768 73.4511 28.5363 72.9147 28.0852 72.5273C27.6342 72.1101 26.9726 71.9314 26.1306 71.9314H23.0333V76.4009ZM36.6851 88.9754V67.1934H44.4733C46.0069 67.1934 47.4503 67.4019 48.8034 67.8489C50.1565 68.2958 51.3895 68.9217 52.4719 69.7858C53.5545 70.6201 54.4265 71.7524 55.058 73.1827C55.6593 74.6131 55.9902 76.2519 55.9902 78.0993C55.9902 79.917 55.6595 81.5559 55.058 82.986C54.4265 84.4164 53.5545 85.5487 52.4719 86.3829C51.3893 87.2471 50.1565 87.8728 48.8034 88.3198C47.4503 88.7667 46.0069 88.9754 44.4733 88.9754H36.6851ZM42.188 84.2377H43.8117C44.6837 84.2377 45.4957 84.1483 46.2474 83.9397C46.9691 83.7311 47.6607 83.4033 48.3223 82.9564C48.9538 82.5095 49.465 81.8836 49.8258 81.0493C50.1866 80.215 50.3671 79.2316 50.3671 78.0993C50.3671 76.9372 50.1866 75.9539 49.8258 75.1196C49.465 74.2853 48.9538 73.6596 48.3223 73.2126C47.6607 72.7657 46.9692 72.4378 46.2474 72.2293C45.4957 72.0207 44.6837 71.9312 43.8117 71.9312H42.188V84.2377ZM58.8168 88.9754V67.1934H74.4534V71.9312H64.4399V75.4175H72.4386V80.1255H64.4399V88.9754H58.8168Z" fill="white"/>
</svg>

<svg width="90" height="120" fill="none" xmlns="http://www.w3.org/2000/svg"><path fill-rule="evenodd" clip-rule="evenodd" d="M15.666 0H55.9L90 35.22v68.506c0 8.581-7.006 15.524-15.637 15.524H15.666C7.006 119.25 0 112.307 0 103.726V15.525C0 6.943 7.006 0 15.666 0Z" fill="#E5252A"/><path opacity=".302" fill-rule="evenodd" clip-rule="evenodd" d="M55.867 0v34.953h34.13L55.867 0Z" fill="#fff"/><path d="M17.41 88.975V67.193h9.352c2.315 0 4.15.626 5.533 1.907 1.383 1.252 2.075 2.95 2.075 5.066 0 2.116-.692 3.814-2.075 5.066-1.383 1.28-3.218 1.907-5.533 1.907h-3.729v7.836H17.41Zm5.623-12.574h3.098c.841 0 1.503-.179 1.954-.596.451-.387.692-.924.692-1.639s-.24-1.251-.692-1.639c-.45-.417-1.112-.596-1.954-.596h-3.098v4.47Zm13.652 12.574V67.193h7.788c1.534 0 2.977.209 4.33.656 1.354.447 2.587 1.073 3.669 1.937 1.082.834 1.954 1.966 2.586 3.397.601 1.43.932 3.069.932 4.916 0 1.818-.33 3.457-.932 4.887-.632 1.43-1.504 2.563-2.586 3.397-1.083.864-2.316 1.49-3.669 1.937-1.353.447-2.796.655-4.33.655h-7.788Zm5.503-4.737h1.624c.872 0 1.684-.09 2.435-.298a7.333 7.333 0 0 0 2.075-.984c.632-.447 1.143-1.072 1.504-1.907.36-.834.541-1.817.541-2.95 0-1.162-.18-2.145-.541-2.98-.361-.834-.872-1.46-1.504-1.906a7.329 7.329 0 0 0-2.075-.984c-.751-.208-1.563-.298-2.435-.298h-1.624v12.307Zm16.629 4.737V67.193h15.636v4.738H64.44v3.487h7.999v4.707h-8v8.85h-5.622Z" fill="#fff"/></svg>
